svg/color/himson.svg

<svg width="40" height="40" viewBox="0 0 40 40" fill="none" xmlns="http://www.w3.org/2000/svg">
<g clip-path="url(#clip0_819_3607)">
<path d="M20 0C31.0457 0 40 8.9543 40 20C40 31.0457 31.0457 40 20 40C8.95431 40 7.90517e-06 31.0457 0 20C6.58765e-07 8.95431 8.95431 1.97595e-06 20 0Z" fill="#D3D2D3"/>
<path d="M26 6C30.4183 6 34 9.58172 34 14V26C34 30.4183 30.4183 34 26 34H14C9.58172 34 6 30.4183 6 26V14C6 9.58172 9.58172 6 14 6H26Z" fill="#241D24"/>
<g clip-path="url(#clip1_819_3607)">
<path d="M17.4389 9.90027C17.6468 9.90027 17.6469 10.1435 17.6469 10.4658V13.2894L17.6197 17.8925C17.6197 18.1899 17.6202 18.3233 17.7554 18.3233C17.7825 18.3233 17.8374 18.3219 18.1853 18.001C19.4244 16.9615 20.8237 16.3374 22.4391 16.3373C23.6492 16.3373 24.7557 16.7162 25.5873 17.604C26.3108 18.3526 26.4192 19.4753 26.4192 20.7227V27.9168C26.4338 28.4903 26.5709 28.7419 27.4294 28.9706C27.6769 29.0247 27.9594 29.0789 27.9489 29.343C27.9488 29.8355 27.5852 29.8896 27.0924 29.8896H21.0877C20.9941 29.8672 20.9121 29.8104 20.8576 29.7309C20.8031 29.6514 20.7797 29.5544 20.7926 29.4589C20.7927 29.1888 20.928 29.1101 21.1691 29.0561C21.5725 28.948 21.8428 28.8663 21.9508 28.5711C22.0838 28.2032 22.1251 27.885 22.1251 26.9082V20.2821C22.1251 19.2112 21.4557 18.3249 19.9337 18.3249C18.4618 18.3251 17.7134 19.3569 17.7134 20.2821L17.6156 27.8272C17.6156 28.5007 17.6971 28.7693 18.6119 29.0125C18.855 29.0666 19.123 29.1203 19.1232 29.3882C19.1232 29.8727 18.7757 29.9003 18.2913 29.9003H12.7568C12.2662 29.9003 12.0581 29.8999 12.0581 29.4695C12.0581 29.1994 12.218 29.147 12.5151 29.0659C13.403 28.7374 13.4029 28.3924 13.4029 27.0742V16.0299C13.4029 15.4644 13.4036 13.6966 13.3495 13.3453C13.2684 12.8547 13.1329 12.8337 12.3803 12.6466C12.1101 12.5925 12.0581 12.3974 12.0581 12.1895C12.0581 11.9192 12.0812 11.8918 12.89 11.7317C14.3581 11.4074 15.7659 10.8532 17.0608 10.0893C17.3308 9.90039 17.3849 9.90027 17.4389 9.90027Z" fill="white"/>
</g>
</g>
<defs>
<clipPath id="clip0_819_3607">
<rect width="40" height="40" fill="white"/>
</clipPath>
<clipPath id="clip1_819_3607">
<rect width="20" height="20" fill="white" transform="translate(10 10)"/>
</clipPath>
</defs>
</svg>

<svg xmlns="http://www.w3.org/2000/svg" width="40" height="40" fill="none" viewBox="0 0 40 40"><g clip-path="url(#himson_svg-a)"><path fill="#D3D2D3" d="M20 0c11.046 0 20 8.954 20 20s-8.954 20-20 20S0 31.046 0 20 8.954 0 20 0"/><path fill="#241D24" d="M26 6a8 8 0 0 1 8 8v12a8 8 0 0 1-8 8H14a8 8 0 0 1-8-8V14a8 8 0 0 1 8-8z"/><g clip-path="url(#himson_svg-b)"><path fill="#fff" d="M17.439 9.9c.208 0 .208.243.208.566v2.823l-.027 4.603c0 .298 0 .431.135.431.027 0 .082-.001.43-.322 1.24-1.04 2.639-1.664 4.254-1.664 1.21 0 2.317.38 3.148 1.267.724.749.832 1.871.832 3.119v7.194c.015.573.152.825 1.01 1.054.248.054.53.108.52.372 0 .492-.364.547-.857.547h-6.004a.39.39 0 0 1-.295-.431c0-.27.135-.349.376-.403.404-.108.674-.19.782-.485.133-.368.174-.686.174-1.663v-6.626c0-1.07-.67-1.957-2.191-1.957-1.472 0-2.22 1.032-2.22 1.957l-.098 7.545c0 .674.081.942.996 1.185.243.055.511.108.511.376 0 .485-.347.512-.832.512h-5.534c-.49 0-.699 0-.699-.43 0-.27.16-.323.457-.404.888-.329.888-.674.888-1.992V16.03c0-.566 0-2.333-.053-2.685-.082-.49-.217-.511-.97-.698-.27-.055-.322-.25-.322-.457 0-.27.023-.298.832-.458a14.3 14.3 0 0 0 4.17-1.643c.27-.189.325-.189.379-.189"/></g></g><defs><clipPath id="himson_svg-a"><path fill="#fff" d="M0 0h40v40H0z"/></clipPath><clipPath id="himson_svg-b"><path fill="#fff" d="M10 10h20v20H10z"/></clipPath></defs></svg>
